packages/Snapp/src/RatingStarFillIcon/index.svg

<?xml version="1.0" encoding="UTF-8"?>
<svg width="24px" height="24px" viewBox="0 0 24 24" version="1.1" xmlns="http://www.w3.org/2000/svg" xmlns:xlink="http://www.w3.org/1999/xlink">
    <title>Icons/24/RatingStarFill</title>
    <g id="Icons/24/RatingStarFill" stroke="none" stroke-width="1" fill="none" fill-rule="evenodd">
        <path d="M8.05674704,21.3495632 C7.04135874,21.7843739 5.86574013,21.3137228 5.43092939,20.2983345 C5.30034996,19.9933999 5.24766728,19.6607746 5.27762574,19.3304133 L5.66503268,15.0583557 L2.84056138,11.8299005 C2.11325955,10.9985727 2.19758921,9.73505381 3.02891696,9.00775198 C3.2785757,8.7893336 3.57864136,8.63644251 3.90209126,8.56284745 L8.08477488,7.61115492 L10.2824086,3.92727558 C10.8482996,2.97867603 12.0760368,2.66842949 13.0246364,3.23432054 C13.3095134,3.40426511 13.5476468,3.64239857 13.7175914,3.92727558 L15.9152251,7.61115492 L20.0979087,8.56284745 C21.1749505,8.80790844 21.8494041,9.87968446 21.6043431,10.9567262 C21.5307481,11.2801761 21.377857,11.5802417 21.1594386,11.8299005 L18.3349673,15.0583557 L18.7223743,19.3304133 C18.8221316,20.4304689 18.0112297,21.4031094 16.9111741,21.5028668 C16.5808129,21.5328253 16.2481875,21.4801426 15.943253,21.3495632 L12,19.6609788 L8.05674704,21.3495632 Z" id="Path" fill="#404040" fill-rule="nonzero"></path>
    </g>
</svg>

<svg viewBox="0 0 24 24" xmlns="http://www.w3.org/2000/svg" fill="currentColor" focusable="false">
  <path d="M8.057 21.35a2 2 0 01-2.78-2.02l.388-4.272-2.824-3.228a2 2 0 011.061-3.267l4.183-.952 2.197-3.684a2 2 0 013.436 0l2.197 3.684 4.183.952a2 2 0 011.061 3.267l-2.824 3.228.387 4.272a2 2 0 01-2.779 2.02L12 19.66l-3.943 1.69z" fill="none"/>
</svg>
